build/assets/fonts/992480f1d3c42a07ddcc81ef819277d7.svg

<svg width="100" height="60" viewBox="0 0 100 60" version="1.1" xmlns="http://www.w3.org/2000/svg" xmlns:xlink="http://www.w3.org/1999/xlink"><title>Payone-dark</title><desc>Created with Sketch.</desc><g id="Dark-Payment-badges" stroke="none" stroke-width="1" fill="none" fill-rule="evenodd" transform="translate(-130.000000, -1289.000000)"><g id="Payone-dark" transform="translate(130.000000, 1289.000000)"><rect id="Rectangle" fill="#00324F" x="0" y="0" width="100" height="60" rx="4"/><path d="M14.8953116,33.5803125 C14.8953116,33.9310875 15.1982196,34.2179625 15.5683086,34.2179625 L18.3345994,34.2179625 C18.7046884,34.2179625 19.0073591,33.9310875 19.0073591,33.5803125 L19.0073591,30.9581625 C19.0073591,30.6073875 18.7046884,30.3202875 18.3345994,30.3202875 L15.5683086,30.3202875 C15.1982196,30.3202875 14.8953116,30.6073875 14.8953116,30.9581625 L14.8953116,33.5803125" id="Fill-1" fill="#FFF"/><path d="M10.1097923,33.5911125 C10.1097923,33.9421125 10.4124629,34.2289875 10.7825519,34.2289875 L13.5486053,34.2289875 C13.9186944,34.2289875 14.221365,33.9421125 14.221365,33.5911125 L14.221365,30.9691875 C14.221365,30.6184125 13.9186944,30.3313125 13.5486053,30.3313125 L10.7825519,30.3313125 C10.4124629,30.3313125 10.1097923,30.6184125 10.1097923,30.9691875 L10.1097923,33.5911125" id="Fill-2" fill="#FFF"/><path d="M14.8953116,29.0440875 C14.8953116,29.3950875 15.1982196,29.6819625 15.5683086,29.6819625 L18.3345994,29.6819625 C18.7046884,29.6819625 19.0073591,29.3950875 19.0073591,29.0440875 L19.0073591,26.4221625 C19.0073591,26.0713875 18.7046884,25.7845125 18.3345994,25.7845125 L15.5683086,25.7845125 C15.1982196,25.7845125 14.8953116,26.0713875 14.8953116,26.4221625 L14.8953116,29.0440875" id="Fill-3" fill="#2CADD8"/><path d="M10.1097923,29.0440875 C10.1097923,29.3950875 10.4124629,29.6819625 10.7825519,29.6819625 L13.5486053,29.6819625 C13.9186944,29.6819625 14.221365,29.3950875 14.221365,29.0440875 L14.221365,26.4221625 C14.221365,26.0713875 13.9186944,25.7845125 13.5486053,25.7845125 L10.7825519,25.7845125 C10.4124629,25.7845125 10.1097923,26.0713875 10.1097923,26.4221625 L10.1097923,29.0440875" id="Fill-4" fill="#FFF"/><path d="M25.5550148,27.1711875 L27.9236795,27.1711875 C29.6397626,27.1711875 29.7814837,27.6450375 29.7814837,28.1724375 C29.7814837,28.7493375 29.571632,29.3392875 28.0164985,29.3392875 L25.5550148,29.3392875 L25.5550148,27.1711875 L25.5550148,27.1711875 Z M27.9469436,25.7833875 L23.8346588,25.7833875 L23.8346588,34.2168375 L25.5550148,34.2168375 L25.5550148,30.7273125 L28.3186944,30.7273125 C30.385638,30.7273125 31.5713947,29.7958125 31.5713947,28.1724375 C31.5713947,26.4979875 30.4872404,25.7833875 27.9469436,25.7833875 L27.9469436,25.7833875 Z" id="Fill-6" fill="#FFF"/><path d="M39.6710979,30.7592625 L36.304451,30.7592625 L37.9922849,27.5406375 L39.6710979,30.7592625 L39.6710979,30.7592625 Z M37.1279525,25.7833875 L32.5565579,34.2168375 L34.4820178,34.2168375 L35.5618991,32.1472875 L40.3896736,32.1472875 L41.4695549,34.2168375 L43.4306231,34.2168375 L38.8578042,25.7833875 L37.1279525,25.7833875 L37.1279525,25.7833875 Z" id="Fill-7" fill="#FFF"/><polyline id="Fill-8" fill="#FFF" points="52.1722255 25.7833875 49.2663501 29.3190375 46.3588131 25.7833875 44.1385163 25.7833875 48.4053412 30.7468875 48.4053412 34.2168375 50.1252226 34.2168375 50.1252226 30.7468875 54.392997 25.7833875 52.1722255 25.7833875"/><path d="M60.9470623,33.0380625 C59.0439169,33.0380625 57.7653412,31.8172125 57.7653412,30.0001125 C57.7653412,28.1827875 59.0439169,26.9619375 60.9470623,26.9619375 C62.8506825,26.9619375 64.1292582,28.1827875 64.1292582,30.0001125 C64.1292582,31.8172125 62.8506825,33.0380625 60.9470623,33.0380625 L60.9470623,33.0380625 Z M60.9470623,25.5739125 C57.2779822,25.5739125 55.975905,27.9582375 55.975905,30.0001125 C55.975905,32.0417625 57.2779822,34.4260875 60.9470623,34.4260875 C64.6168546,34.4260875 65.9196439,32.0417625 65.9196439,30.0001125 C65.9196439,27.9582375 64.6168546,25.5739125 60.9470623,25.5739125 L60.9470623,25.5739125 Z" id="Fill-9" fill="#2CADD8"/><polyline id="Fill-10" fill="#2CADD8" points="76.8312166 32.0836125 72.0611276 25.7833875 70.0243323 25.7833875 70.0243323 34.2168375 71.7446884 34.2168375 71.7446884 27.9163875 76.5147774 34.2168375 78.5513353 34.2168375 78.5513353 25.7833875 76.8312166 25.7833875 76.8312166 32.0836125"/><polyline id="Fill-11" fill="#2CADD8" points="89.8902077 27.1711875 89.8902077 25.7833875 83.0280119 25.7833875 83.0280119 34.2168375 89.8795252 34.2168375 89.8795252 32.8285875 84.7488427 32.8285875 84.7488427 30.5839875 89.4875964 30.5839875 89.4875964 29.1961875 84.7488427 29.1961875 84.7488427 27.1711875 89.8902077 27.1711875"/></g></g></svg>

<svg width="100" height="60" xmlns="http://www.w3.org/2000/svg"><g fill="none" fill-rule="evenodd"><rect fill="#00324F" width="100" height="60" rx="4"/><path d="M14.895 33.58c0 .351.303.638.673.638h2.767c.37 0 .672-.287.672-.638v-2.622c0-.35-.302-.638-.672-.638h-2.767c-.37 0-.673.287-.673.638v2.622m-4.785.011c0 .351.302.638.673.638h2.766c.37 0 .672-.287.672-.638V30.97c0-.35-.302-.638-.672-.638h-2.766c-.37 0-.673.287-.673.638v2.622" fill="#FFF"/><path d="M14.895 29.044c0 .351.303.638.673.638h2.767c.37 0 .672-.287.672-.638v-2.622c0-.35-.302-.637-.672-.637h-2.767c-.37 0-.673.286-.673.637v2.622" fill="#2CADD8"/><path d="M10.11 29.044c0 .351.302.638.673.638h2.766c.37 0 .672-.287.672-.638v-2.622c0-.35-.302-.637-.672-.637h-2.766c-.37 0-.673.286-.673.637v2.622m15.445-1.873h2.369c1.716 0 1.857.474 1.857 1.001 0 .577-.21 1.167-1.765 1.167h-2.461v-2.168zm2.392-1.388h-4.112v8.434h1.72v-3.49h2.764c2.067 0 3.252-.931 3.252-2.555 0-1.674-1.084-2.389-3.624-2.389zm11.724 4.977h-3.367l1.688-3.22 1.68 3.22zm-2.543-4.977l-4.571 8.434h1.925l1.08-2.07h4.828l1.08 2.07h1.96l-4.572-8.434h-1.73zm15.044 0l-2.906 3.536-2.907-3.536h-2.22l4.266 4.964v3.47h1.72v-3.47l4.268-4.964h-2.22" fill="#FFF"/><path d="M60.947 33.038c-1.903 0-3.182-1.22-3.182-3.038 0-1.817 1.279-3.038 3.182-3.038 1.904 0 3.182 1.22 3.182 3.038 0 1.817-1.278 3.038-3.182 3.038zm0-7.464c-3.669 0-4.971 2.384-4.971 4.426 0 2.042 1.302 4.426 4.971 4.426 3.67 0 4.973-2.384 4.973-4.426 0-2.042-1.303-4.426-4.973-4.426zm15.884 6.51l-4.77-6.3h-2.037v8.433h1.72v-6.3l4.77 6.3h2.037v-8.434h-1.72v6.3m13.059-4.912v-1.388h-6.862v8.434h6.852v-1.388h-5.131v-2.245h4.739v-1.388h-4.74v-2.025h5.142" fill="#2CADD8"/></g></svg>
